icons/outline/circle-dotted.svg

<!--
tags: [shape, point, check]
version: "1.26"
unicode: "ed28"
category: Shapes
-->
<svg
  xmlns="http://www.w3.org/2000/svg"
  width="24"
  height="24"
  viewBox="0 0 24 24"
  fill="none"
  stroke="currentColor"
  stroke-width="2"
  stroke-linecap="round"
  stroke-linejoin="round"
>
  <path d="M7.5 4.21l0 .01m-3.29 3.28l0 .01m-1.21 4.49l0 .01m1.21 4.49l0 .01m3.29 3.28l0 .01m4.5 1.2l0 .01m4.5 -1.22l0 .01m3.29 -3.3l0 .01m1.21 -4.51l0 .01m-1.21 -4.51l0 .01m-3.29 -3.3l0 .01m-4.5 -1.22l0 .01" />
</svg>

<!--
tags: [shape, point, check]
version: "1.26"
unicode: "ed28"
category: Shapes
-->
<svg
  xmlns="http://www.w3.org/2000/svg"
  width="24"
  height="24"
  viewBox="0 0 24 24"
  fill="none"
  stroke="currentColor"
  stroke-width="2"
  stroke-linecap="round"
  stroke-linejoin="round"
>
    <path d="M7.5 4.21l0 .01M4.21 7.5l0 .01M3 12l0 .01M4.21 16.5l0 .01M7.5 19.79l0 .01M12 21l0 .01M16.5 19.79l0 .01M19.79 16.5l0 .01M21 12l0 .01M19.79 7.5l0 .01M16.5 4.21l0 .01M12 3l0 .01" />
</svg>
